X: 31
T: Smedens f\orste trekant
O: efter B\orge Christensen
F: http://www.folketshus.dk/cgi-bin/visnode.cgitr-smed1
R: jig
Z: 2006 John Chambers <jc:trillian.mit.edu>
M: 6/8
L: 1/8
K: G
d \
| "G"g3 d2B | G2B e2B | "D7"d3  dcA |    F3 z3 \
|    f3 e2d | c2d e2d |     d2d def | "G"g3 z2 :|
|: B \
| "G"d3 B2d/B/ | G2B d2g | "D7"g2f A3 | A2G A2B \
| "D7"c3 A3 | A2F A3 | dcA dcA | "G"G3 z2 :|
|: z \
| "D7"AAA AGA | "G"B2G G2G | "D7"AAA AGA | "G"B2G G2B \
|     ddd dBG | "C"e2e a2a/g/ | "D7"fed def | "G"g2g g2 :|
